assets/img/apple-logo.svg

<svg width="50" height="60" viewBox="0 0 50 60" fill="none" xmlns="http://www.w3.org/2000/svg">
<path d="M41.4408 33.632C39.7903 25.3257 47.6744 20.4542 47.6744 20.4542C47.6744 20.4542 44.6027 16.0101 39.4402 14.8668C34.2803 13.721 31.6978 15.1526 29.1203 16.2263C26.5404 17.3026 25.253 17.3026 25.253 17.3026C21.5299 17.3026 18.8082 13.3605 11.7147 15.1552C6.82771 16.3885 1.68317 22.0299 0.753669 28.7631C-0.175832 35.4988 1.82999 44.0935 5.69732 50.7546C9.56465 57.4208 13.5042 59.926 16.3003 59.9981C19.0966 60.0676 21.8877 57.9949 25.253 57.4903C28.6209 56.9907 30.6936 58.7108 33.997 59.6403C37.2876 60.5673 38.4411 59.7072 42.2312 56.4835C46.0316 53.2598 49.4716 44.0137 49.4716 44.0137C49.4716 44.0137 43.0912 41.9435 41.4408 33.632Z" fill="white"/>
<path d="M34.1335 9.49327C37.7896 5.76763 36.5512 0 36.5512 0C36.5512 0 31.4171 0.901211 27.9771 4.48015C24.5397 8.06172 25.1087 13.7186 25.1087 13.7186C25.1087 13.7186 30.4772 13.2165 34.1335 9.49327Z" fill="white"/>
</svg>

<svg xmlns="http://www.w3.org/2000/svg" width="50" height="60" fill="none"><path fill="#fff" d="M41.44 33.632c-1.65-8.306 6.234-13.178 6.234-13.178s-3.071-4.444-8.234-5.587c-5.16-1.146-7.742.286-10.32 1.36-2.58 1.076-3.867 1.076-3.867 1.076-3.723 0-6.445-3.943-13.538-2.148C6.828 16.39 1.683 22.03.754 28.763c-.93 6.736 1.076 15.33 4.943 21.992 3.868 6.666 7.807 9.171 10.603 9.243 2.797.07 5.588-2.003 8.953-2.508 3.368-.5 5.44 1.22 8.744 2.15 3.29.927 4.444.067 8.234-3.157 3.8-3.223 7.24-12.47 7.24-12.47s-6.38-2.07-8.03-10.381ZM34.133 9.493C37.79 5.768 36.551 0 36.551 0s-5.134.901-8.574 4.48C24.54 8.062 25.11 13.72 25.11 13.72s5.368-.502 9.024-4.226Z"/></svg>
